src/pos-icons/view-comfy.svg

<svg height="24" viewBox="0 0 24 24" width="24" xmlns="http://www.w3.org/2000/svg"><path d="m3 9h4v-4h-4zm0 5h4v-4h-4zm5 0h4v-4h-4zm5 0h4v-4h-4zm-5-5h4v-4h-4zm5-4v4h4v-4zm5 9h4v-4h-4zm-15 5h4v-4h-4zm5 0h4v-4h-4zm5 0h4v-4h-4zm5 0h4v-4h-4zm0-14v4h4v-4z"/></svg>

<?xml version="1.0" encoding="UTF-8"?><!DOCTYPE svg PUBLIC "-//W3C//DTD SVG 1.1//EN" "http://www.w3.org/Graphics/SVG/1.1/DTD/svg11.dtd"><svg xmlns="http://www.w3.org/2000/svg" xmlns:xlink="http://www.w3.org/1999/xlink" version="1.1" id="mdi-view-comfy" width="24" height="24" viewBox="0 0 24 24"><path d="M3,9H7V5H3V9M3,14H7V10H3V14M8,14H12V10H8V14M13,14H17V10H13V14M8,9H12V5H8V9M13,5V9H17V5H13M18,14H22V10H18V14M3,19H7V15H3V19M8,19H12V15H8V19M13,19H17V15H13V19M18,19H22V15H18V19M18,5V9H22V5H18Z" /></svg>
